X:1
T:Title
%%score 1 { 2 | 3 }
L:1/8
Q:1/4=95
M:4/4
K:F
V:1 treble nm="Grand Piano, Soprano"
V:2 treble nm="Choir Pad, Over There (Ferguson)"
V:3 bass 
V:1
 C>[B,F] [FA][FA] [FA][FA] [FA]2 | [FG]F[DG][DF] [DF]D [DF]2 | %2
w: By~Arranged~by~RRobert~Emmett~Winsett * * * * * *||
 [DF][^CG][=CA][FA] [FA][FA][Fc][Fc] | [EB][FA] [EG]6 | [Gc][GB] [FA]>[FA] [FA][FA] [FA]2 | %5
w: |||
 [FG]F[DG][DF] [DF][B,D] [DF]2 | [DF][^CG][=CA][CA] [CA][CF][EG][EG] | [EA]>[EG] F6 | %8
w: |||
 C>[B,F] [FA][FA] [FA][FA] [FA]2 | [FG]F[DG][DF] [DF]D [DF]2 | %10
w: ||
 [DF][^CG][=CA][FA] [FA][FA][Fc][Fc] | [EB][FA] [EG]6 | [Gc][GB] [FA]>[FA] [FA][FA] [FA]2 | %13
w: |||
 [FG]F[DG][DF] [DF][B,D] [DF]2 | [DF][^CG][=CA][CA] [CA][CF][EG][EG] | [EA]>[EG] F6- | F2 z2 z4 |] %17
w: ||||
V:2
 A,>A, CC CC C2 | B,A,B,B, B,F, B,2 | B,F,F,[K:treble]C CCCC | CC C6 | ED C>C CC C2 | %5
 B,A,B,B, B,F, B,2 | B,F,F,F, F,A,B,B, | C>B, A,6 | A,>A,[K:treble] CC CC C2 | B,A,B,B, B,F, B,2 | %10
 B,F,F,[K:treble]C CCCC | CC C6 | ED C>C CC C2 | B,A,B,B, B,F, B,2 | B,F,F,F, F,A,B,B, | %15
 C>B, A,6- | A,2 z2 z4 |] %17
V:3
 F,>F, F,F, F,F, F,2 | F,F,B,,B,, B,,B,, B,,2 | B,,B,, z F, F,F,A,A, | G,F, C,6 | %4
 C,E, F,>F, F,F, F,2 | F,F,B,,B,, B,,B,, B,,2 | B,,B,, z2 z F,C,C, | C,>C, F,6 | %8
 F,>F, F,F, F,F, F,2 | F,F,B,,B,, B,,B,, B,,2 | B,,B,, z F, F,F,A,A, | G,F, C,6 | %12
 C,E, F,>F, F,F, F,2 | F,F,B,,B,, B,,B,, B,,2 | B,,B,, z2 z F,C,C, | C,>C, F,6- | F,2 z2 z4 |] %17

